packages/sights/assets/overlays/AoO-nOoM.svg

<svg width="500" height="375" viewBox="0 0 500 375" fill="none" xmlns="http://www.w3.org/2000/svg">
<path d="M490.56 31.5989L409.7 19.4489C409.7 19.4489 294.59 13.9389 245.98 19.4489L198.26 22.9589C198.26 22.9589 160.04 25.2589 121.82 31.5989L115.71 37.3289V41.9189L126.71 55.9789C126.71 55.9789 65.25 99.6989 64.34 101.839C64.34 101.839 33.15 117.129 17.25 134.249C17.25 134.249 10.25 144.949 9 149.839L11.75 155.339C11.75 155.339 13.58 188.969 20.31 193.869L10.53 212.819L12.97 232.389L23.67 249.199C23.3325 255.698 24.3286 262.198 26.597 268.298C28.8654 274.398 32.358 279.969 36.86 284.669L44.16 290.779L89.41 308.779C89.41 308.779 82.16 303.319 81.16 297.199C81.16 297.199 76.58 249.509 145.98 233.309C145.98 233.309 253.59 213.129 261.85 294.149V305.149L490.56 290.779" stroke="white" stroke-miterlimit="10"/>
<path d="M236.94 247.819C236.94 247.819 244.84 262.729 247.36 284.969L248.15 291.299C248.807 294.345 249.142 297.452 249.15 300.569C249.15 332.479 214.98 358.349 172.83 358.349C130.68 358.349 96.4805 332.509 96.4805 300.569C96.4805 299.099 96.5505 297.649 96.6905 296.209C96.6905 296.209 96.4705 276.289 117.46 243.489" stroke="white" stroke-miterlimit="10"/>
<path d="M172.761 349.789C205.6 349.789 232.221 329.051 232.221 303.469C232.221 277.887 205.6 257.149 172.761 257.149C139.922 257.149 113.301 277.887 113.301 303.469C113.301 329.051 139.922 349.789 172.761 349.789Z" stroke="white" stroke-miterlimit="10"/>
<path d="M90.75 309.399C90.75 309.399 92.81 296.329 96.48 294.149" stroke="white" stroke-miterlimit="10"/>
<path d="M247.16 282.909C247.16 282.909 258.41 282.289 261.01 287.609" stroke="white" stroke-miterlimit="10"/>
<path d="M126.751 55.9785L135.921 70.0485L65.0613 127.219C65.0613 127.219 29.9613 124.009 55.0613 106.789" stroke="white" stroke-miterlimit="10"/>
<path d="M19.7898 131.699C19.7898 131.699 15.7898 143.269 31.3598 146.249C31.3598 146.249 67.3598 151.249 71.4798 153.129L75.6098 158.249V161.839C75.6098 161.839 54.0598 189.839 49.6998 193.259C49.6998 193.259 29.6298 198.099 15.0098 181.119" stroke="white" stroke-miterlimit="10"/>
<path d="M115.74 37.3291L120.55 42.3291L154.95 57.5091C154.95 57.5091 192.28 44.2091 247.16 39.6191C247.16 39.6191 421.51 27.6991 490.61 40.0791" stroke="white" stroke-miterlimit="10"/>
<path d="M135.92 70.0488L154.95 57.5088" stroke="white" stroke-miterlimit="10"/>
<path d="M243.832 39.9092C243.832 39.9092 184.532 118.049 178.412 128.749L175.702 134.439C175.702 134.439 171.002 148.309 169.852 160.009C169.852 160.009 170.082 174.909 181.782 205.409L187.092 216.679" stroke="white" stroke-miterlimit="10"/>
<path d="M393.881 34.5088C393.881 34.5088 410.471 120.239 410.771 133.079L415.361 140.079L423.921 170.079L422.391 175.279C422.391 175.279 420.861 226.279 410.161 251.399L416.891 269.399L410.471 291.109L402.821 296.319" stroke="white" stroke-miterlimit="10"/>
<path d="M490.561 268.159C484.131 272.159 272.121 274.889 272.121 274.889C272.121 274.889 262.491 216.799 169.851 215.569C169.851 215.569 75.3812 217.099 68.6612 280.999C68.6612 280.999 33.0212 281.809 24.2012 258.999" stroke="white" stroke-miterlimit="10"/>
<path d="M204.019 174.449V179.839L207.569 181.679L228.899 180.989L231.079 178.579V174.449C231.079 174.449 243.179 177.319 243.829 178.689C243.829 178.689 244.719 184.099 244.379 185.009C244.379 185.009 224.429 191.419 189.379 185.569C189.379 185.569 185.829 181.099 186.629 179.039C186.589 179.039 186.249 175.139 204.019 174.449Z" stroke="white" stroke-miterlimit="10"/>
<path d="M445.011 175.999C445.737 177.705 446.941 179.164 448.477 180.202C450.013 181.24 451.817 181.812 453.671 181.849C453.671 181.849 468.671 181.849 470.011 181.389C470.011 181.389 472.131 179.899 467.601 176.519C467.601 176.519 477.751 177.089 479.521 180.069V184.369L476.771 186.259C476.771 186.259 460.891 190.559 431.431 186.259L429.311 184.139V178.139C429.311 178.139 433.091 175.199 445.011 175.999Z" stroke="white" stroke-miterlimit="10"/>
<path d="M178.41 128.749C178.41 128.749 486.16 135.009 490.56 133.639" stroke="white" stroke-miterlimit="10"/>
<path d="M224.271 48.9493C224.271 48.9493 410.45 33.0493 490.56 47.7293" stroke="white" stroke-miterlimit="10"/>
</svg>

<svg width="500" height="375" fill="none" xmlns="http://www.w3.org/2000/svg"><path d="m490.56 31.599-80.86-12.15s-115.11-5.51-163.72 0l-47.72 3.51s-38.22 2.3-76.44 8.64l-6.11 5.73v4.59l11 14.06s-61.46 43.72-62.37 45.86c0 0-31.19 15.29-47.09 32.41 0 0-7 10.7-8.25 15.59l2.75 5.5s1.83 33.63 8.56 38.53l-9.78 18.95 2.44 19.57 10.7 16.81a47.7 47.7 0 0 0 13.19 35.47l7.3 6.11 45.25 18s-7.25-5.46-8.25-11.58c0 0-4.58-47.69 64.82-63.89 0 0 107.61-20.18 115.87 60.84v11l228.71-14.37" stroke="#fff" stroke-miterlimit="10"/><path d="M236.94 247.819s7.9 14.91 10.42 37.15l.79 6.33a44.507 44.507 0 0 1 1 9.27c0 31.91-34.17 57.78-76.32 57.78-42.15 0-76.35-25.84-76.35-57.78 0-1.47.07-2.92.21-4.36 0 0-.22-19.92 20.77-52.72" stroke="#fff" stroke-miterlimit="10"/><path d="M172.761 349.789c32.839 0 59.46-20.738 59.46-46.32s-26.621-46.32-59.46-46.32-59.46 20.738-59.46 46.32 26.621 46.32 59.46 46.32ZM90.75 309.399s2.06-13.07 5.73-15.25M247.16 282.909s11.25-.62 13.85 4.7M126.751 55.978l9.17 14.07-70.86 57.171s-35.1-3.21-10-20.43M19.79 131.699s-4 11.57 11.57 14.55c0 0 36 5 40.12 6.88l4.13 5.12v3.59s-21.55 28-25.91 31.42c0 0-20.07 4.84-34.69-12.14M115.74 37.33l4.81 5 34.4 15.18s37.33-13.3 92.21-17.89c0 0 174.35-11.92 243.45.46M135.92 70.049l19.03-12.54" stroke="#fff" stroke-miterlimit="10"/><path d="M243.832 39.91s-59.3 78.139-65.42 88.839l-2.71 5.69s-4.7 13.87-5.85 25.57c0 0 .23 14.9 11.93 45.4l5.31 11.27M393.881 34.509s16.59 85.73 16.89 98.57l4.59 7 8.56 30-1.53 5.2s-1.53 51-12.23 76.12l6.73 18-6.42 21.71-7.65 5.21" stroke="#fff" stroke-miterlimit="10"/><path d="M490.561 268.159c-6.43 4-218.44 6.73-218.44 6.73s-9.63-58.09-102.27-59.32c0 0-94.47 1.53-101.19 65.43 0 0-35.64.81-44.46-22M204.019 174.449v5.39l3.55 1.84 21.33-.69 2.18-2.41v-4.13s12.1 2.87 12.75 4.24c0 0 .89 5.41.55 6.32 0 0-19.95 6.41-55 .56 0 0-3.55-4.47-2.75-6.53-.04 0-.38-3.9 17.39-4.59ZM445.011 175.999a9.62 9.62 0 0 0 8.66 5.85s15 0 16.34-.46c0 0 2.12-1.49-2.41-4.87 0 0 10.15.57 11.92 3.55v4.3l-2.75 1.89s-15.88 4.3-45.34 0l-2.12-2.12v-6s3.78-2.94 15.7-2.14ZM178.41 128.749s307.75 6.26 312.15 4.89M224.271 48.95s186.179-15.9 266.289-1.22" stroke="#fff" stroke-miterlimit="10"/></svg>
